X:1
T:O Master, Let Me Walk with Thee
T:Text: Washington Gladden (1836-1918) Tune: H. Percy Smith (1825-1898)
T:LM MARYTON www.hymnary.org/text/o_master_let_me_walk_with_thee
T:O Master, Let Me Walk with Thee
T:This hymn is in the public domain.  You may freely use this score for personal and congregational worship.  If you reproduce the score, please credit Hymnary.org as the source. 
T:This hymn is in the public domain.  You may freely use this score for personal and congregational worship.  If you reproduce the score, please credit Hymnary.org as the source. 
Z:This hymn is in the public domain.  You may freely use this score for personal and congregational worship.  If you reproduce the score, please credit Hymnary.org as the source.
%%score ( 1 2 ) ( 3 4 )
L:1/8
M:3/4
K:D
V:1 treble nm="Piano" snm="Pno."
V:2 treble 
V:3 bass nm="Piano" snm="Pno."
V:4 bass 
V:1
 [DF]2 [DF]2 [DF]2 | [DG]4 [DF]2 | [B,E]4 [B,E]2 | [CE]6 | [CA]2 [DA]2 [EG]2 | [DF]4 [Fd]2 | %6
w: 3~Teach me thy|pa- tience—|still with|thee|in clo- ser,|dea- rer|
w: 1~O Mas- ter,|let me|walk with|thee|in low- ly|paths of|
w: 2~Help me the|slow of|heart to|move|by some clear,|win- ning|
 (([Fd]2 [Ec]2)) [DB]2 | [CA]6 | [EA]2 [EB]2 [EA]2 | [Dd]4 [Dc]2 | (c2 B2) A2 | G4 [DF]2 | %12
w: com- * pa-|ny,|in work that|keeps faith|sweet _ and|strong, in|
w: ser- * vice|free;|tell me thy|se- cret:|help _ me|bear the|
w: word _ of|love;|teach me the|way- ward|feet _ to|stay, and|
 [CE]4 [B,D]2 | [EG]4 [DF]2 | (E2 B,2) [A,C]2 | [A,D]6 |] %16
w: trust that|tri- umphs|o- * ver|wrong.|
w: strain of|toil, the|fret _ of|care.|
w: guide them|in the|home- * ward|way.|
V:2
 x6 | x6 | x6 | x6 | x6 | x6 | x6 | x6 | x6 | x6 | D4 D2 | (D2 C2) x2 | x6 | x6 | B,4 x2 | x6 |] %16
V:3
 [D,A,]2 [D,A,]2 [D,A,]2 | [D,B,]4 [D,A,]2 | [G,,B,]4 [^G,,E,]2 | [A,,A,]6 | %4
 [A,,A,]2 [B,,A,]2 [C,A,]2 | [D,A,]4 [B,,A,]2 | [E,^G,]4 [E,G,]2 | [A,,A,]6 | %8
 [G,C]2 [G,B,]2 [G,C]2 | [F,A,]4 [F,A,]2 | G,4 [F,A,]2 | [E,A,]4 [D,A,]2 | [A,,G,]4 [B,,F,]2 | %13
 [C,A,]4 [D,A,]2 | [G,,G,]4 [A,,E,]2 | [D,F,]6 |] %16
V:4
 x6 | x6 | x6 | x6 | x6 | x6 | x6 | x6 | x6 | x6 | G,4 x2 | x6 | x6 | x6 | x6 | x6 |] %16

